DVA
CUT[Entfuehrte Graserin
    Es wollt Gott's Graeserin grasene gehn,]
CNR[sie grast wohl in dem gruenen Klee]
REG[Europa, Mitteleuropa, Lothringen, Rechicourt ( Kr. Saarburg )]
KEY[D0042  16  F 2/4]
MEL[1_  1__1__  5_.55_6_  5__4_3_  2___  ^__0_
    5_  5_4_3_2_  1__2__  1_-7_-6__  -5___  ^__0_
    -5_  1__1__  2__5__  3__2__  3___  3__2__  1___  ^__0_ //] >>
FCT[Ballade]
CMT[Verzierungen; Inzipit = Transposition zum Lied]
